packages/assets/static/images/icons/house.svg

<svg width="24" height="24" viewBox="0 0 24 24" xmlns="http://www.w3.org/2000/svg">
<path d="M20.3256 9.92349L12.8256 2.42349C12.474 2.07198 11.9972 1.87451 11.5 1.87451C11.0028 1.87451 10.526 2.07198 10.1744 2.42349L2.67438 9.92349C2.49957 10.0972 2.36098 10.304 2.26668 10.5317C2.17237 10.7594 2.12422 11.0036 2.12501 11.25V20.25C2.12501 20.5484 2.24354 20.8346 2.45451 21.0455C2.66549 21.2565 2.95164 21.375 3.25001 21.375H9.25001C9.54838 21.375 9.83453 21.2565 10.0455 21.0455C10.2565 20.8346 10.375 20.5484 10.375 20.25V15.375H12.625V20.25C12.625 20.5484 12.7435 20.8346 12.9545 21.0455C13.1655 21.2565 13.4516 21.375 13.75 21.375H19.75C20.0484 21.375 20.3345 21.2565 20.5455 21.0455C20.7565 20.8346 20.875 20.5484 20.875 20.25V11.25C20.8758 11.0036 20.8276 10.7594 20.7333 10.5317C20.639 10.304 20.5005 10.0972 20.3256 9.92349ZM18.625 19.125H14.875V14.25C14.875 13.9517 14.7565 13.6655 14.5455 13.4546C14.3345 13.2436 14.0484 13.125 13.75 13.125H9.25001C8.95164 13.125 8.66549 13.2436 8.45451 13.4546C8.24354 13.6655 8.12501 13.9517 8.12501 14.25V19.125H4.37501V11.4047L11.5 4.27974L18.625 11.4047V19.125Z"/>
</svg>

<svg viewBox="0 0 24 24" xmlns="http://www.w3.org/2000/svg" aria-hidden="true" fill="currentColor" height="24px" width="24px"><path d="m20.326 9.923-7.5-7.5a1.875 1.875 0 0 0-2.652 0l-7.5 7.5a1.86 1.86 0 0 0-.549 1.327v9a1.125 1.125 0 0 0 1.125 1.125h6a1.125 1.125 0 0 0 1.125-1.125v-4.875h2.25v4.875a1.125 1.125 0 0 0 1.125 1.125h6a1.125 1.125 0 0 0 1.125-1.125v-9a1.86 1.86 0 0 0-.55-1.327m-1.701 9.202h-3.75V14.25a1.125 1.125 0 0 0-1.125-1.125h-4.5a1.125 1.125 0 0 0-1.125 1.125v4.875h-3.75v-7.72L11.5 4.28l7.125 7.125z"/></svg>
